X: 1
T: Spelmansgl\"adje
C: av Eric Sahlstr\"om
O: efter Peter "Puma" Hedlund
S: karen Myers, BlueRoseMusic.org #2234
R: waltz
S: Fiddle Hell Online 2020-11-05
S: Fiddle Hell Online 2022-4-2 handout for Bronwyn Bird's Swedish Jam
Z: 2020 John Chambers <jc:trillian.mit.edu>
M: 3/4
L: 1/8
K: Bb
"^A"|:\
B,2 D2 E2 | F2 DB, DF | B2 BA Bc | d4 B2 | EG BG eG | DF BF dF | CF AF cA | B2 dB FD | B,2 D2 E2 | F2 DB, DF | B2 BA Bc | d4 B2 | EG BG eG |
DF BF dF | CF "^To Coda"AF cA |1 B4 D2 :|2 B3 F (3Acf |] [K:F] "^B"|: a2 fc AF | A,C FA cf | d2 BF DB, | G,B, DG Bd | C2 EF GB | dc =Bc EG | FG AB cd |
cA FA cf | a2 fc AF | A,C FA cf | d2 BF DB, | G,B, DG Bd | C2 EF GB | dc =Bc EG | F2 EF Ac |[1 f3 A cf :|2 f4 c'2 "^C"|: a2 fa ge | f2 Ac BG |
A,C FA cf | B,D FB df | CE Gc eg | f2 Ac BG | A,C FA cf | B,D FB df | CE Gc eg |1 f4 c'2 :|2 "^D.C. al Coda"f4 D2 |] y6!Coda! B4 z2 |]
